/* XPM */
static const char *Accent_xpm[] = {
"128 1 128 2",
".    c #82C883",
"*    c #85C687",
"1    c #88C58B",
"2    c #8BC48F",
"3    c #8EC393",
"4    c #91C197",
"5    c #94C09B",
"6    c #97BF9F",
"7    c #9ABEA3",
"8    c #9DBCA7",
"9    c #9FBBAB",
"0    c #A2BAAF",
"a    c #A5B9B3",
"b    c #A8B7B7",
"c    c #ABB6BB",
"d    c #AEB5BF",
"e    c #B1B3C3",
"f    c #B4B2C7",
"g    c #B7B1CB",
"h    c #BAB0CF",
"i    c #BDAED3",
"j    c #C0AFD2",
"k    c #C3AFCE",
"l    c #C6B0CA",
"m    c #C9B1C7",
"n    c #CCB2C3",
"o    c #CFB3BF",
"p    c #D2B4BC",
"q    c #D5B4B8",
"r    c #D8B5B4",
"s    c #DBB6B1",
"t    c #DEB7AD",
"u    c #E0B8A9",
"v    c #E3B9A6",
"w    c #E6BAA2",
"x    c #E9BA9E",
"y    c #ECBB9B",
"z    c #EFBC97",
"A    c #F2BD93",
"B    c #F5BE90",
"C    c #F8BF8C",
"D    c #FBBF88",
"E    c #FDC186",
"F    c #FDC487",
"G    c #FDC788",
"H    c #FDCA89",
"I    c #FDCD8A",
"J    c #FED08B",
"K    c #FED38C",
"L    c #FED68D",
"M    c #FED98D",
"N    c #FEDC8E",
"O    c #FEDF8F",
"P    c #FEE190",
"Q    c #FEE491",
"R    c #FEE792",
"S    c #FEEA93",
"T    c #FEED94",
"U    c #FFF095",
"V    c #FFF395",
"W    c #FFF696",
"X    c #FFF997",
"Y    c #FFFC98",
"+.   c #FFFF99",
"..   c #F6F89A",
"*.   c #ECF19B",
"1.   c #E3EA9C",
"2.   c #DAE39D",
"3.   c #D0DD9E",
"4.   c #C7D69F",
"5.   c #BECFA1",
"6.   c #B4C8A2",
"7.   c #ABC1A3",
"8.   c #A2BAA4",
"9.   c #98B3A5",
"0.   c #8FACA6",
"a.   c #86A5A7",
"b.   c #7C9FA8",
"c.   c #7398A9",
"d.   c #6A91AA",
"e.   c #608AAB",
"f.   c #5783AC",
"g.   c #4E7CAD",
"h.   c #4475AF",
"i.   c #3B6EB0",
"j.   c #3E69AE",
"k.   c #4664AC",
"l.   c #4F5FAA",
"m.   c #585AA8",
"n.   c #6055A5",
"o.   c #6950A3",
"p.   c #714BA1",
"q.   c #7A469E",
"r.   c #83419C",
"s.   c #8B3C9A",
"t.   c #943798",
"u.   c #9D3295",
"v.   c #A52D93",
"w.   c #AE2891",
"x.   c #B7238E",
"y.   c #BF1E8C",
"z.   c #C8198A",
"A.   c #D01487",
"B.   c #D90F85",
"C.   c #E20A83",
"D.   c #EA0581",
"E.   c #EF037D",
"F.   c #ED0878",
"G.   c #EB0C74",
"H.   c #E8106F",
"I.   c #E6146A",
"J.   c #E41865",
"K.   c #E11C60",
"L.   c #DF215B",
"M.   c #DD2556",
"N.   c #DB2951",
"O.   c #D82D4D",
"P.   c #D63148",
"Q.   c #D43543",
"R.   c #D13A3E",
"S.   c #CF3E39",
"T.   c #CD4234",
"U.   c #CA462F",
"V.   c #C84A2B",
"W.   c #C64E26",
"X.   c #C45321",
"Y.   c #C1571C",
"+*   c #BF5B17",
". * 1 2 3 4 5 6 7 8 9 0 a b c d e f g h i j k l m n o p q r s t u v w x y z A B C D E F G H I J K L M N O P Q R S T U V W X Y +...*.1.2.3.4.5.6.7.8.9.0.a.b.c.d.e.f.g.h.i.j.k.l.m.n.o.p.q.r.s.t.u.v.w.x.y.z.A.B.C.D.E.F.G.H.I.J.K.L.M.N.O.P.Q.R.S.T.U.V.W.X.Y.+*"
};
