/* XPM */
static const char *BlueYellowRed_xpm[] = {
"128 1 128 2",
".    c #4978B6",
"*    c #4C7CB8",
"1    c #507FB9",
"2    c #5383BB",
"3    c #5786BD",
"4    c #5A8ABF",
"5    c #5E8DC1",
"6    c #6191C3",
"7    c #6594C4",
"8    c #6998C6",
"9    c #6C9BC8",
"0    c #709FCA",
"a    c #73A2CC",
"b    c #77A6CE",
"c    c #7AA9CF",
"d    c #7EADD1",
"e    c #82B0D3",
"f    c #85B3D5",
"g    c #89B7D7",
"h    c #8CBAD9",
"i    c #90BEDA",
"j    c #93C1DC",
"k    c #97C3DD",
"l    c #9BC6DF",
"m    c #9FC8E0",
"n    c #A2CAE1",
"o    c #A6CDE3",
"p    c #AACFE4",
"q    c #ADD2E5",
"r    c #B1D4E7",
"s    c #B5D7E8",
"t    c #B9D9EA",
"u    c #BCDBEB",
"v    c #C0DEEC",
"w    c #C4E0EE",
"x    c #C7E3EF",
"y    c #CBE5F0",
"z    c #CFE8F2",
"A    c #D2EAF3",
"B    c #D6EDF4",
"C    c #DAEFF6",
"D    c #DEF1F7",
"E    c #E0F3F7",
"F    c #E2F4F4",
"G    c #E3F4F2",
"H    c #E5F5EF",
"I    c #E6F5EC",
"J    c #E8F6EA",
"K    c #E9F7E7",
"L    c #EBF7E4",
"M    c #ECF8E2",
"N    c #EEF8DF",
"O    c #EFF9DC",
"P    c #F0F9DA",
"Q    c #F2FAD7",
"R    c #F3FBD4",
"S    c #F5FBD2",
"T    c #F6FCCF",
"U    c #F8FCCC",
"V    c #F9FDCA",
"W    c #FBFDC7",
"X    c #FCFEC4",
"Y    c #FEFEC2",
"+.   c #FFFFBF",
"..   c #FFFEBD",
"*.   c #FFFCBB",
"1.   c #FFFBB8",
"2.   c #FFF9B6",
"3.   c #FFF8B4",
"4.   c #FFF6B2",
"5.   c #FFF5B0",
"6.   c #FFF3AD",
"7.   c #FFF2AB",
"8.   c #FFF0A9",
"9.   c #FEEFA7",
"0.   c #FEEEA5",
"a.   c #FEECA2",
"b.   c #FEEBA0",
"c.   c #FEE99E",
"d.   c #FEE89C",
"e.   c #FEE69A",
"f.   c #FEE597",
"g.   c #FEE395",
"h.   c #FEE293",
"i.   c #FEE091",
"j.   c #FEDD8E",
"k.   c #FEDA8C",
"l.   c #FED689",
"m.   c #FED287",
"n.   c #FECE84",
"o.   c #FDCA81",
"p.   c #FDC67F",
"q.   c #FDC27C",
"r.   c #FDBE7A",
"s.   c #FDBA77",
"t.   c #FDB775",
"u.   c #FDB372",
"v.   c #FDAF6F",
"w.   c #FDAB6D",
"x.   c #FDA76A",
"y.   c #FDA368",
"z.   c #FC9F65",
"A.   c #FC9B62",
"B.   c #FC9760",
"C.   c #FC935D",
"D.   c #FC905B",
"E.   c #FB8C58",
"F.   c #FA8756",
"G.   c #F88354",
"H.   c #F67E51",
"I.   c #F47A4F",
"J.   c #F3764C",
"K.   c #F1714A",
"L.   c #EF6D48",
"M.   c #EE6945",
"N.   c #EC6443",
"O.   c #EA6041",
"P.   c #E85C3E",
"Q.   c #E7573C",
"R.   c #E5533A",
"S.   c #E34F37",
"T.   c #E14A35",
"U.   c #E04633",
"V.   c #DE4130",
"W.   c #DC3D2E",
"X.   c #DA392C",
"Y.   c #D93429",
"+*   c #D73027",
". * 1 2 3 4 5 6 7 8 9 0 a b c d e f g h i j k l m n o p q r s t u v w x y z A B C D E F G H I J K L M N O P Q R S T U V W X Y +...*.1.2.3.4.5.6.7.8.9.0.a.b.c.d.e.f.g.h.i.j.k.l.m.n.o.p.q.r.s.t.u.v.w.x.y.z.A.B.C.D.E.F.G.H.I.J.K.L.M.N.O.P.Q.R.S.T.U.V.W.X.Y.+*"
};
