/* XPM */
static const char *BlueRed_xpm[] = {
"128 1 128 2",
".    c #2469AE",
"*    c #286CAF",
"1    c #2B6FB1",
"2    c #2E73B3",
"3    c #3176B4",
"4    c #3579B6",
"5    c #387CB7",
"6    c #3B7FB9",
"7    c #3F82BB",
"8    c #4285BC",
"9    c #4589BE",
"0    c #488CC0",
"a    c #4C8FC1",
"b    c #4F92C3",
"c    c #5295C5",
"d    c #5698C6",
"e    c #599BC8",
"f    c #5C9FCA",
"g    c #5FA2CB",
"h    c #63A5CD",
"i    c #66A8CE",
"j    c #6AABD0",
"k    c #6FAED2",
"l    c #74B1D3",
"m    c #79B3D5",
"n    c #7EB6D6",
"o    c #83B9D8",
"p    c #88BCD9",
"q    c #8DBFDB",
"r    c #92C1DC",
"s    c #97C4DE",
"t    c #9CC7E0",
"u    c #A1CAE1",
"v    c #A6CDE3",
"w    c #ABCFE4",
"x    c #B0D2E6",
"y    c #B5D5E7",
"z    c #BAD8E9",
"A    c #BFDBEA",
"B    c #C4DEEC",
"C    c #C9E0ED",
"D    c #CEE3EF",
"E    c #D2E5F0",
"F    c #D3E6F0",
"G    c #D5E7F1",
"H    c #D7E8F1",
"I    c #D9E9F1",
"J    c #DBEAF2",
"K    c #DCEAF2",
"L    c #DEEBF2",
"M    c #E0ECF3",
"N    c #E2EDF3",
"O    c #E3EEF3",
"P    c #E5EFF4",
"Q    c #E7EFF4",
"R    c #E9F0F4",
"S    c #EBF1F5",
"T    c #ECF2F5",
"U    c #EEF3F5",
"V    c #F0F4F6",
"W    c #F2F4F6",
"X    c #F3F5F6",
"Y    c #F5F6F7",
"+.   c #F7F7F7",
"..   c #F7F6F5",
"*.   c #F8F4F3",
"1.   c #F8F3F0",
"2.   c #F8F2EE",
"3.   c #F8F0EC",
"4.   c #F9EFEA",
"5.   c #F9EEE7",
"6.   c #F9EDE5",
"7.   c #FAEBE3",
"8.   c #FAEAE1",
"9.   c #FAE9DE",
"0.   c #FAE7DC",
"a.   c #FBE6DA",
"b.   c #FBE5D8",
"c.   c #FBE3D5",
"d.   c #FCE2D3",
"e.   c #FCE1D1",
"f.   c #FCDFCF",
"g.   c #FCDECC",
"h.   c #FDDDCA",
"i.   c #FDDBC8",
"j.   c #FDD8C4",
"k.   c #FCD5BF",
"l.   c #FBD1BA",
"m.   c #FBCDB6",
"n.   c #FAC9B1",
"o.   c #F9C5AC",
"p.   c #F9C2A7",
"q.   c #F8BEA3",
"r.   c #F7BA9E",
"s.   c #F7B699",
"t.   c #F6B395",
"u.   c #F5AF90",
"v.   c #F5AB8B",
"w.   c #F4A786",
"x.   c #F3A382",
"y.   c #F3A07D",
"z.   c #F29C78",
"A.   c #F19873",
"B.   c #F1946F",
"C.   c #F0906A",
"D.   c #EF8D65",
"E.   c #EE8861",
"F.   c #EB835F",
"G.   c #E87E5C",
"H.   c #E57859",
"I.   c #E37357",
"J.   c #E06D54",
"K.   c #DD6852",
"L.   c #DA634F",
"M.   c #D75D4D",
"N.   c #D4584A",
"O.   c #D15347",
"P.   c #CF4D45",
"Q.   c #CC4842",
"R.   c #C94340",
"S.   c #C63D3D",
"T.   c #C3383A",
"U.   c #C03338",
"V.   c #BD2D35",
"W.   c #BB2833",
"X.   c #B82330",
"Y.   c #B51D2E",
"+*   c #B2182B",
". * 1 2 3 4 5 6 7 8 9 0 a b c d e f g h i j k l m n o p q r s t u v w x y z A B C D E F G H I J K L M N O P Q R S T U V W X Y +...*.1.2.3.4.5.6.7.8.9.0.a.b.c.d.e.f.g.h.i.j.k.l.m.n.o.p.q.r.s.t.u.v.w.x.y.z.A.B.C.D.E.F.G.H.I.J.K.L.M.N.O.P.Q.R.S.T.U.V.W.X.Y.+*"
};
