/* XPM */
static const char *Blue_xpm[] = {
"128 1 128 2",
".    c #EDF2FE",
"*    c #EBF1FE",
"1    c #E9F0FD",
"2    c #E7EFFC",
"3    c #E5EDFB",
"4    c #E3ECFB",
"5    c #E2EBFA",
"6    c #E0EAF9",
"7    c #DEE9F8",
"8    c #DCE8F8",
"9    c #DAE7F7",
"0    c #D8E6F6",
"a    c #D6E4F5",
"b    c #D4E3F5",
"c    c #D2E2F4",
"d    c #D0E1F3",
"e    c #CEE0F2",
"f    c #CCDFF2",
"g    c #CADEF1",
"h    c #C9DDF0",
"i    c #C7DBEF",
"j    c #C5DAEF",
"k    c #C3DAEE",
"l    c #C1D9ED",
"m    c #BFD8ED",
"n    c #BDD7EC",
"o    c #BBD6EB",
"p    c #BAD6EB",
"q    c #B8D5EA",
"r    c #B6D4E9",
"s    c #B4D3E9",
"t    c #B2D3E8",
"u    c #B0D2E7",
"v    c #AED1E7",
"w    c #ACD0E6",
"x    c #ABCFE5",
"y    c #A9CFE5",
"z    c #A7CEE4",
"A    c #A5CDE3",
"B    c #A3CCE3",
"C    c #A1CBE2",
"D    c #9FCBE1",
"E    c #9DCAE1",
"F    c #9BC8E0",
"G    c #98C7E0",
"H    c #96C6DF",
"I    c #94C4DF",
"J    c #91C3DE",
"K    c #8FC2DE",
"L    c #8CC0DD",
"M    c #8ABFDD",
"N    c #88BEDC",
"O    c #85BCDC",
"P    c #83BBDB",
"Q    c #81BADB",
"R    c #7EB9DA",
"S    c #7CB7DA",
"T    c #79B6D9",
"U    c #77B5D9",
"V    c #75B3D8",
"W    c #72B2D8",
"X    c #70B1D7",
"Y    c #6DAFD7",
"+.   c #6BAED6",
"..   c #69ADD5",
"*.   c #67ABD5",
"1.   c #65AAD4",
"2.   c #63A9D3",
"3.   c #61A7D2",
"4.   c #5FA6D2",
"5.   c #5EA5D1",
"6.   c #5CA4D0",
"7.   c #5AA2CF",
"8.   c #58A1CF",
"9.   c #56A0CE",
"0.   c #549ECD",
"a.   c #529DCC",
"b.   c #509CCC",
"c.   c #4E9ACB",
"d.   c #4C99CA",
"e.   c #4A98C9",
"f.   c #4896C9",
"g.   c #4695C8",
"h.   c #4594C7",
"i.   c #4392C6",
"j.   c #4191C5",
"k.   c #3F8FC5",
"l.   c #3E8EC4",
"m.   c #3C8CC3",
"n.   c #3B8BC2",
"o.   c #3989C1",
"p.   c #3888C1",
"q.   c #3686C0",
"r.   c #3585BF",
"s.   c #3383BE",
"t.   c #3282BE",
"u.   c #3080BD",
"v.   c #2E7EBC",
"w.   c #2D7DBB",
"x.   c #2B7BBA",
"y.   c #2A7ABA",
"z.   c #2878B9",
"A.   c #2777B8",
"B.   c #2575B7",
"C.   c #2474B6",
"D.   c #2272B6",
"E.   c #2170B4",
"F.   c #1F6EB3",
"G.   c #1E6CB1",
"H.   c #1D6AB0",
"I.   c #1C68AE",
"J.   c #1B66AD",
"K.   c #1A64AB",
"L.   c #1862AA",
"M.   c #1760A8",
"N.   c #165EA7",
"O.   c #155CA5",
"P.   c #145AA3",
"Q.   c #1358A2",
"R.   c #1155A0",
"S.   c #10539F",
"T.   c #0F519D",
"U.   c #0E4F9C",
"V.   c #0D4D9A",
"W.   c #0C4B99",
"X.   c #0A4997",
"Y.   c #094796",
"+*   c #084594",
". * 1 2 3 4 5 6 7 8 9 0 a b c d e f g h i j k l m n o p q r s t u v w x y z A B C D E F G H I J K L M N O P Q R S T U V W X Y +...*.1.2.3.4.5.6.7.8.9.0.a.b.c.d.e.f.g.h.i.j.k.l.m.n.o.p.q.r.s.t.u.v.w.x.y.z.A.B.C.D.E.F.G.H.I.J.K.L.M.N.O.P.Q.R.S.T.U.V.W.X.Y.+*"
};
