/* XPM */
static const char *Doppler_xpm[] = {
"128 1 96 2",
".    c #00F7FF",
"*    c #00EFFF",
"1    c #00E7FF",
"2    c #00DFFF",
"3    c #00D7FF",
"4    c #00CFFF",
"5    c #00C7FF",
"6    c #00BFFF",
"7    c #00B7FF",
"8    c #00AFFF",
"9    c #00A7FF",
"0    c #009FFF",
"a    c #0097FF",
"b    c #008FFF",
"c    c #0087FF",
"d    c #0080FF",
"e    c #0078FF",
"f    c #0070FF",
"g    c #0068FF",
"h    c #0060FF",
"i    c #0058FF",
"j    c #0050FF",
"k    c #0048FF",
"l    c #0040FF",
"m    c #0038FF",
"n    c #0030FF",
"o    c #0028FF",
"p    c #0020FF",
"q    c #0018FF",
"r    c #0010FF",
"s    c #0008FF",
"t    c #0000FF",
"u    c #0000F7",
"v    c #0000EF",
"w    c #0000E7",
"x    c #0000DF",
"y    c #0000D7",
"z    c #0000CF",
"A    c #0000C7",
"B    c #0000BF",
"C    c #0000B7",
"D    c #0000AF",
"E    c #0000A7",
"F    c #00009F",
"G    c #000097",
"H    c #00008F",
"I    c #000087",
"J    c #000080",
"K    c #000078",
"L    c #000070",
"M    c #000068",
"N    c #000060",
"O    c #000058",
"P    c #000050",
"Q    c #000048",
"R    c #000040",
"S    c #000038",
"T    c #000030",
"U    c #000028",
"V    c #000020",
"W    c #000018",
"X    c #000010",
"Y    c #000008",
"+.   c #000000",
"..   c #080000",
"*.   c #100000",
"1.   c #180000",
"2.   c #200000",
"3.   c #280000",
"4.   c #300000",
"5.   c #380000",
"6.   c #400000",
"7.   c #480000",
"8.   c #500000",
"9.   c #580000",
"0.   c #600000",
"a.   c #680000",
"b.   c #700000",
"c.   c #780000",
"d.   c #800000",
"e.   c #870000",
"f.   c #8F0000",
"g.   c #970000",
"h.   c #9F0000",
"i.   c #A70000",
"j.   c #AF0000",
"k.   c #B70000",
"l.   c #BF0000",
"m.   c #C70000",
"n.   c #CF0000",
"o.   c #D70000",
"p.   c #DF0000",
"q.   c #E70000",
"r.   c #EF0000",
"s.   c #F70000",
"t.   c #FF0000",
". * 1 2 3 4 5 6 7 8 9 0 a b c d e f g h i j k l m n o p q r s t u v w x y z A B C D E F G H I J K L M N O P Q R S T U V W X Y +...*.1.2.3.4.5.6.7.8.9.0.a.b.c.d.e.f.g.h.i.j.k.l.m.n.o.p.q.r.s.t.t.t.t.t.t.t.t.t.t.t.t.t.t.t.t.t.t.t.t.t.t.t.t.t.t.t.t.t.t.t.t.t."
};
