/* XPM */
static const char *Elevation_xpm[] = {
"128 1 128 2",
".    c #028632",
"*    c #048930",
"1    c #068C2E",
"2    c #088E2C",
"3    c #0A912A",
"4    c #0C9428",
"5    c #0E9726",
"6    c #109A24",
"7    c #129D22",
"8    c #14A020",
"9    c #16A21E",
"0    c #18A51C",
"a    c #1AA81A",
"b    c #1CAB18",
"c    c #1EAE16",
"d    c #20B114",
"e    c #22B311",
"f    c #24B60F",
"g    c #26B90D",
"h    c #28BC0B",
"i    c #2ABF09",
"j    c #2CC207",
"k    c #2EC505",
"l    c #30C703",
"m    c #32CA01",
"n    c #36CD02",
"o    c #3ECE06",
"p    c #45CF0A",
"q    c #4DD10F",
"r    c #54D213",
"s    c #5CD418",
"t    c #63D51C",
"u    c #6BD620",
"v    c #72D825",
"w    c #7AD929",
"x    c #81DB2D",
"y    c #89DC32",
"z    c #90DD36",
"A    c #98DF3B",
"B    c #A0E03F",
"C    c #A7E243",
"D    c #AFE348",
"E    c #B6E44C",
"F    c #BEE650",
"G    c #C5E755",
"H    c #CDE959",
"I    c #D4EA5E",
"J    c #DCEC62",
"K    c #E3ED66",
"L    c #EBEE6B",
"M    c #F2F06F",
"N    c #F4EE6F",
"O    c #F4EC6D",
"P    c #F4EA6B",
"Q    c #F4E86A",
"R    c #F4E668",
"S    c #F4E466",
"T    c #F4E265",
"U    c #F4E063",
"V    c #F4DE61",
"W    c #F4DC60",
"X    c #F4DA5E",
"Y    c #F4D85C",
"+.   c #F4D75A",
"..   c #F4D559",
"*.   c #F4D357",
"1.   c #F4D155",
"2.   c #F4CF54",
"3.   c #F4CD52",
"4.   c #F4CB50",
"5.   c #F4C94F",
"6.   c #F4C74D",
"7.   c #F4C54B",
"8.   c #F4C34A",
"9.   c #F4C148",
"0.   c #F4BF46",
"a.   c #F3BC45",
"b.   c #F0B944",
"c.   c #ECB543",
"d.   c #E9B242",
"e.   c #E5AE41",
"f.   c #E2AB40",
"g.   c #DEA73E",
"h.   c #DAA43D",
"i.   c #D7A03C",
"j.   c #D39D3B",
"k.   c #D09A3A",
"l.   c #CC9639",
"m.   c #C99338",
"n.   c #C58F37",
"o.   c #C28C36",
"p.   c #BE8835",
"q.   c #BA8534",
"r.   c #B78133",
"s.   c #B37E32",
"t.   c #B07A31",
"u.   c #AC7730",
"v.   c #A9732F",
"w.   c #A5702E",
"x.   c #A26C2D",
"y.   c #9E692B",
"z.   c #9A652A",
"A.   c #9B682F",
"B.   c #9F6E37",
"C.   c #A37440",
"D.   c #A77A48",
"E.   c #AB8050",
"F.   c #AF8659",
"G.   c #B38C61",
"H.   c #B79269",
"I.   c #BB9872",
"J.   c #BF9E7A",
"K.   c #C3A482",
"L.   c #C7AA8B",
"M.   c #CBB093",
"N.   c #CFB69B",
"O.   c #D3BCA3",
"P.   c #D7C2AC",
"Q.   c #DBC9B4",
"R.   c #DFCFBC",
"S.   c #E3D5C5",
"T.   c #E7DBCD",
"U.   c #EBE1D5",
"V.   c #EFE7DE",
"W.   c #F3EDE6",
"X.   c #F7F3EE",
"Y.   c #FBF9F7",
"+*   c #FFFFFF",
". * 1 2 3 4 5 6 7 8 9 0 a b c d e f g h i j k l m n o p q r s t u v w x y z A B C D E F G H I J K L M N O P Q R S T U V W X Y +...*.1.2.3.4.5.6.7.8.9.0.a.b.c.d.e.f.g.h.i.j.k.l.m.n.o.p.q.r.s.t.u.v.w.x.y.z.A.B.C.D.E.F.G.H.I.J.K.L.M.N.O.P.Q.R.S.T.U.V.W.X.Y.+*"
};
