/* XPM */
static const char *Geology_xpm[] = {
"128 1 128 2",
".    c #2F87B9",
"*    c #338CB7",
"1    c #3790B6",
"2    c #3B94B4",
"3    c #3F99B3",
"4    c #439DB1",
"5    c #47A1B0",
"6    c #4BA5AF",
"7    c #4FAAAD",
"8    c #53AEAC",
"9    c #57B2AA",
"0    c #5BB7A9",
"a    c #5FBBA7",
"b    c #63BFA6",
"c    c #68C3A5",
"d    c #6CC4A5",
"e    c #70C6A5",
"f    c #74C8A5",
"g    c #78C9A5",
"h    c #7DCBA5",
"i    c #81CCA5",
"j    c #85CEA5",
"k    c #89D0A4",
"l    c #8DD1A4",
"m    c #91D3A4",
"n    c #96D5A4",
"o    c #9AD6A4",
"p    c #9ED8A4",
"q    c #A2DAA4",
"r    c #A6DBA4",
"s    c #ABDDA4",
"t    c #AEDEA3",
"u    c #B2E0A3",
"v    c #B5E1A2",
"w    c #B9E3A1",
"x    c #BDE4A0",
"y    c #C0E6A0",
"z    c #C4E79F",
"A    c #C7E99E",
"B    c #CBEA9E",
"C    c #CFEB9D",
"D    c #D2ED9C",
"E    c #D6EE9B",
"F    c #D9F09B",
"G    c #DDF19A",
"H    c #E0F399",
"I    c #E4F498",
"J    c #E7F599",
"K    c #E8F69B",
"L    c #EAF69E",
"M    c #EBF7A0",
"N    c #EDF8A3",
"O    c #EEF8A5",
"P    c #F0F9A7",
"Q    c #F1FAAA",
"R    c #F3FAAC",
"S    c #F4FBAE",
"T    c #F6FBB1",
"U    c #F7FCB3",
"V    c #F9FDB6",
"W    c #FAFDB8",
"X    c #FCFEBA",
"Y    c #FDFEBD",
"+.   c #FFFFBF",
"..   c #FFFDBC",
"*.   c #FFFBB8",
"1.   c #FFF9B5",
"2.   c #FFF7B2",
"3.   c #FFF5AF",
"4.   c #FFF3AB",
"5.   c #FFF1A8",
"6.   c #FEEFA5",
"7.   c #FEEDA1",
"8.   c #FEEB9E",
"9.   c #FEE99B",
"0.   c #FEE898",
"a.   c #FEE694",
"b.   c #FEE491",
"c.   c #FEE28E",
"d.   c #FEE08B",
"e.   c #FEDC88",
"f.   c #FED986",
"g.   c #FED683",
"h.   c #FED380",
"i.   c #FED07E",
"j.   c #FECD7B",
"k.   c #FECA79",
"l.   c #FEC776",
"m.   c #FDC474",
"n.   c #FDC171",
"o.   c #FDBE6F",
"p.   c #FDBB6C",
"q.   c #FDB869",
"r.   c #FDB567",
"s.   c #FDB264",
"t.   c #FDAF62",
"u.   c #FDAB60",
"v.   c #FCA75E",
"w.   c #FBA35C",
"x.   c #FB9F5A",
"y.   c #FA9B58",
"z.   c #FA9756",
"A.   c #F99354",
"B.   c #F98E52",
"C.   c #F88A51",
"D.   c #F7864F",
"E.   c #F7824D",
"F.   c #F67E4B",
"G.   c #F67A49",
"H.   c #F57647",
"I.   c #F57245",
"J.   c #F46E43",
"K.   c #F26A42",
"L.   c #F16740",
"M.   c #EF643E",
"N.   c #ED613D",
"O.   c #EB5E3B",
"P.   c #E95B39",
"Q.   c #E75838",
"R.   c #E65536",
"S.   c #E45234",
"T.   c #E24F33",
"U.   c #E04C31",
"V.   c #DE4930",
"W.   c #DC462E",
"X.   c #DB432C",
"Y.   c #D9402B",
"+*   c #D73D29",
". * 1 2 3 4 5 6 7 8 9 0 a b c d e f g h i j k l m n o p q r s t u v w x y z A B C D E F G H I J K L M N O P Q R S T U V W X Y +...*.1.2.3.4.5.6.7.8.9.0.a.b.c.d.e.f.g.h.i.j.k.l.m.n.o.p.q.r.s.t.u.v.w.x.y.z.A.B.C.D.E.F.G.H.I.J.K.L.M.N.O.P.Q.R.S.T.U.V.W.X.Y.+*"
};
