/* XPM */
static const char *Gray_xpm[] = {
"128 1 128 2",
".    c #020202",
"*    c #040404",
"1    c #060606",
"2    c #080808",
"3    c #0A0A0A",
"4    c #0C0C0C",
"5    c #0E0E0E",
"6    c #101010",
"7    c #121212",
"8    c #141414",
"9    c #161616",
"0    c #181818",
"a    c #1A1A1A",
"b    c #1C1C1C",
"c    c #1E1E1E",
"d    c #202020",
"e    c #222222",
"f    c #242424",
"g    c #262626",
"h    c #282828",
"i    c #2A2A2A",
"j    c #2C2C2C",
"k    c #2E2E2E",
"l    c #303030",
"m    c #323232",
"n    c #343434",
"o    c #363636",
"p    c #383838",
"q    c #3A3A3A",
"r    c #3C3C3C",
"s    c #3E3E3E",
"t    c #404040",
"u    c #424242",
"v    c #444444",
"w    c #464646",
"x    c #484848",
"y    c #4A4A4A",
"z    c #4C4C4C",
"A    c #4E4E4E",
"B    c #505050",
"C    c #525252",
"D    c #545454",
"E    c #565656",
"F    c #585858",
"G    c #5A5A5A",
"H    c #5C5C5C",
"I    c #5E5E5E",
"J    c #606060",
"K    c #626262",
"L    c #646464",
"M    c #666666",
"N    c #686868",
"O    c #6A6A6A",
"P    c #6C6C6C",
"Q    c #6E6E6E",
"R    c #707070",
"S    c #727272",
"T    c #747474",
"U    c #767676",
"V    c #787878",
"W    c #7A7A7A",
"X    c #7C7C7C",
"Y    c #7E7E7E",
"+.   c #808080",
"..   c #828282",
"*.   c #848484",
"1.   c #868686",
"2.   c #888888",
"3.   c #8A8A8A",
"4.   c #8C8C8C",
"5.   c #8E8E8E",
"6.   c #909090",
"7.   c #929292",
"8.   c #949494",
"9.   c #969696",
"0.   c #989898",
"a.   c #9A9A9A",
"b.   c #9C9C9C",
"c.   c #9E9E9E",
"d.   c #A0A0A0",
"e.   c #A2A2A2",
"f.   c #A4A4A4",
"g.   c #A6A6A6",
"h.   c #A8A8A8",
"i.   c #AAAAAA",
"j.   c #ACACAC",
"k.   c #AEAEAE",
"l.   c #B0B0B0",
"m.   c #B2B2B2",
"n.   c #B4B4B4",
"o.   c #B6B6B6",
"p.   c #B8B8B8",
"q.   c #BABABA",
"r.   c #BCBCBC",
"s.   c #BEBEBE",
"t.   c #C0C0C0",
"u.   c #C2C2C2",
"v.   c #C4C4C4",
"w.   c #C6C6C6",
"x.   c #C8C8C8",
"y.   c #CACACA",
"z.   c #CCCCCC",
"A.   c #CECECE",
"B.   c #D0D0D0",
"C.   c #D2D2D2",
"D.   c #D4D4D4",
"E.   c #D6D6D6",
"F.   c #D8D8D8",
"G.   c #DADADA",
"H.   c #DCDCDC",
"I.   c #DEDEDE",
"J.   c #E0E0E0",
"K.   c #E2E2E2",
"L.   c #E4E4E4",
"M.   c #E6E6E6",
"N.   c #E8E8E8",
"O.   c #EAEAEA",
"P.   c #ECECEC",
"Q.   c #EEEEEE",
"R.   c #F0F0F0",
"S.   c #F1F1F1",
"T.   c #F3F3F3",
"U.   c #F5F5F5",
"V.   c #F7F7F7",
"W.   c #F9F9F9",
"X.   c #FBFBFB",
"Y.   c #FDFDFD",
"+*   c #FFFFFF",
". * 1 2 3 4 5 6 7 8 9 0 a b c d e f g h i j k l m n o p q r s t u v w x y z A B C D E F G H I J K L M N O P Q R S T U V W X Y +...*.1.2.3.4.5.6.7.8.9.0.a.b.c.d.e.f.g.h.i.j.k.l.m.n.o.p.q.r.s.t.u.v.w.x.y.z.A.B.C.D.E.F.G.H.I.J.K.L.M.N.O.P.Q.R.S.T.U.V.W.X.Y.+*"
};
