/* XPM */
static const char *Green_xpm[] = {
"128 1 128 2",
".    c #EBF7E7",
"*    c #E9F7E5",
"1    c #E8F6E3",
"2    c #E6F5E1",
"3    c #E4F4DF",
"4    c #E2F4DD",
"5    c #E1F3DC",
"6    c #DFF2DA",
"7    c #DDF2D8",
"8    c #DBF1D6",
"9    c #D9F0D4",
"0    c #D8F0D2",
"a    c #D6EFD0",
"b    c #D4EECE",
"c    c #D2EDCC",
"d    c #D1EDCA",
"e    c #CFECC8",
"f    c #CDEBC6",
"g    c #CBEBC4",
"h    c #C9EAC3",
"i    c #C8E9C1",
"j    c #C6E9BF",
"k    c #C4E8BD",
"l    c #C2E7BB",
"m    c #C0E6BA",
"n    c #BFE6B8",
"o    c #BDE5B6",
"p    c #BBE4B4",
"q    c #B9E3B3",
"r    c #B8E3B1",
"s    c #B6E2AF",
"t    c #B4E1AE",
"u    c #B2E0AC",
"v    c #B0E0AA",
"w    c #AFDFA8",
"x    c #ADDEA7",
"y    c #ABDDA5",
"z    c #A9DDA3",
"A    c #A8DCA1",
"B    c #A6DBA0",
"C    c #A4DA9E",
"D    c #A2DA9C",
"E    c #A1D99A",
"F    c #A1D899",
"G    c #A1D797",
"H    c #A1D695",
"I    c #A1D593",
"J    c #A1D492",
"K    c #A1D390",
"L    c #A1D28E",
"M    c #A1D18D",
"N    c #A1D08B",
"O    c #A1CF89",
"P    c #A1CE87",
"Q    c #A1CD86",
"R    c #A1CC84",
"S    c #A1CB82",
"T    c #A1CA80",
"U    c #A1C97F",
"V    c #A1C87D",
"W    c #A1C77B",
"X    c #A1C679",
"Y    c #A1C578",
"+.   c #A1C476",
"..   c #9DC375",
"*.   c #98C274",
"1.   c #94C072",
"2.   c #8FBF71",
"3.   c #8BBE70",
"4.   c #86BD6F",
"5.   c #82BC6E",
"6.   c #7DBB6D",
"7.   c #79B96B",
"8.   c #74B86A",
"9.   c #70B769",
"0.   c #6BB668",
"a.   c #67B567",
"b.   c #62B466",
"c.   c #5EB264",
"d.   c #59B163",
"e.   c #55B062",
"f.   c #50AF61",
"g.   c #4CAE60",
"h.   c #47AD5F",
"i.   c #43AB5D",
"j.   c #40AA5C",
"k.   c #3FA95B",
"l.   c #3DA75A",
"m.   c #3CA659",
"n.   c #3AA458",
"o.   c #39A357",
"p.   c #38A156",
"q.   c #36A054",
"r.   c #359E53",
"s.   c #339D52",
"t.   c #329B51",
"u.   c #319950",
"v.   c #2F984F",
"w.   c #2E964E",
"x.   c #2C954C",
"y.   c #2B934B",
"z.   c #2A924A",
"A.   c #289049",
"B.   c #278F48",
"C.   c #258D47",
"D.   c #248C46",
"E.   c #228A45",
"F.   c #218844",
"G.   c #1F8643",
"H.   c #1E8342",
"I.   c #1C8141",
"J.   c #1A7F40",
"K.   c #197C3F",
"L.   c #177A3E",
"M.   c #15783E",
"N.   c #14763D",
"O.   c #12733C",
"P.   c #10713B",
"Q.   c #0F6F3A",
"R.   c #0D6C39",
"S.   c #0B6A38",
"T.   c #0A6837",
"U.   c #086536",
"V.   c #076336",
"W.   c #056135",
"X.   c #035F34",
"Y.   c #025C33",
"+*   c #005A32",
". * 1 2 3 4 5 6 7 8 9 0 a b c d e f g h i j k l m n o p q r s t u v w x y z A B C D E F G H I J K L M N O P Q R S T U V W X Y +...*.1.2.3.4.5.6.7.8.9.0.a.b.c.d.e.f.g.h.i.j.k.l.m.n.o.p.q.r.s.t.u.v.w.x.y.z.A.B.C.D.E.F.G.H.I.J.K.L.M.N.O.P.Q.R.S.T.U.V.W.X.Y.+*"
};
