/* XPM */
static const char *HighPoint2_xpm[] = {
"128 1 24 1",
".    c #00FF00",
"*    c #35FF00",
"1    c #56FF00",
"2    c #77FF00",
"3    c #98FF00",
"4    c #B9FF00",
"5    c #DBFF00",
"6    c #F5F800",
"7    c #FFE100",
"8    c #FFC000",
"9    c #FF9F00",
"0    c #FF7D00",
"a    c #FF5C00",
"b    c #FF3700",
"c    c #FF1600",
"d    c #EF0500",
"e    c #D20000",
"f    c #B10000",
"g    c #900000",
"h    c #6E0000",
"i    c #4D0000",
"j    c #2C0000",
"k    c #0A0000",
"l    c #000000",
"............................................................................................*1234567890abcdefghijkllllllllllllll"
};
