/* XPM */
static const char *HighPoint_xpm[] = {
"128 1 128 2",
".    c #010103",
"*    c #020206",
"1    c #030309",
"2    c #05050B",
"3    c #06060E",
"4    c #070711",
"5    c #080814",
"6    c #090917",
"7    c #0A0A1A",
"8    c #0B0B1C",
"9    c #0D0D1F",
"0    c #0E0E22",
"a    c #0F0F25",
"b    c #101028",
"c    c #11112B",
"d    c #12122E",
"e    c #131330",
"f    c #141433",
"g    c #161636",
"h    c #171739",
"i    c #18183C",
"j    c #19193F",
"k    c #1A1A41",
"l    c #1B1B44",
"m    c #1C1C47",
"n    c #1E1E4A",
"o    c #1F1F4D",
"p    c #202050",
"q    c #212153",
"r    c #222255",
"s    c #232358",
"t    c #24245B",
"u    c #26265E",
"v    c #272761",
"w    c #282864",
"x    c #292966",
"y    c #2A2A69",
"z    c #2B2B6C",
"A    c #2C2C6F",
"B    c #2E2E72",
"C    c #2F2F75",
"D    c #303078",
"E    c #31317A",
"F    c #32327D",
"G    c #333380",
"H    c #343483",
"I    c #363686",
"J    c #373789",
"K    c #38388B",
"L    c #39398E",
"M    c #3A3A91",
"N    c #3B3B94",
"O    c #3C3C97",
"P    c #3D3D9A",
"Q    c #3F3F9D",
"R    c #40409F",
"S    c #4141A2",
"T    c #4242A5",
"U    c #4343A8",
"V    c #4444AB",
"W    c #4545AE",
"X    c #4747B0",
"Y    c #4848B3",
"+.   c #4949B6",
"..   c #4A4AB9",
"*.   c #4B4BBC",
"1.   c #4C4CBF",
"2.   c #4D4DC2",
"3.   c #4F4FC4",
"4.   c #5050C7",
"5.   c #5151CA",
"6.   c #5252CD",
"7.   c #5353D0",
"8.   c #5454D3",
"9.   c #5555D5",
"0.   c #5757D8",
"a.   c #5858DB",
"b.   c #5959DE",
"c.   c #5A5AE1",
"d.   c #5B5BE4",
"e.   c #5C5CE7",
"f.   c #5D5DE9",
"g.   c #5E5EEC",
"h.   c #6060EF",
"i.   c #6161F2",
"j.   c #6262F5",
"k.   c #6363F8",
"l.   c #6464FA",
"m.   c #6565FD",
"n.   c #6264FB",
"o.   c #5960F2",
"p.   c #505BE9",
"q.   c #4757E0",
"r.   c #3E52D7",
"s.   c #354ECE",
"t.   c #2C49C5",
"u.   c #2344BC",
"v.   c #1A40B3",
"w.   c #113BAA",
"x.   c #0837A1",
"y.   c #013498",
"z.   c #073A92",
"A.   c #0E418B",
"B.   c #144785",
"C.   c #1B4E7E",
"D.   c #215478",
"E.   c #275A72",
"F.   c #2E616B",
"G.   c #376964",
"H.   c #4B785A",
"I.   c #5F8750",
"J.   c #739646",
"K.   c #87A53C",
"L.   c #9BB432",
"M.   c #AFC328",
"N.   c #C2D21E",
"O.   c #D6E114",
"P.   c #EAEF0A",
"Q.   c #FEFE00",
"R.   c #FFE400",
"S.   c #FFC700",
"T.   c #FFAB00",
"U.   c #FF8E00",
"V.   c #FF7200",
"W.   c #FF5500",
"X.   c #FF3900",
"Y.   c #FF1C00",
"+*   c #FF0000",
". * 1 2 3 4 5 6 7 8 9 0 a b c d e f g h i j k l m n o p q r s t u v w x y z A B C D E F G H I J K L M N O P Q R S T U V W X Y +...*.1.2.3.4.5.6.7.8.9.0.a.b.c.d.e.f.g.h.i.j.k.l.m.n.o.p.q.r.s.t.u.v.w.x.y.z.A.B.C.D.E.F.G.H.I.J.K.L.M.N.O.P.Q.R.S.T.U.V.W.X.Y.+*"
};
