/* XPM */
static const char *HotMetal_xpm[] = {
"128 1 128 2",
".    c #060000",
"*    c #0A0000",
"1    c #0E0000",
"2    c #120000",
"3    c #160000",
"4    c #190000",
"5    c #1D0000",
"6    c #210000",
"7    c #250000",
"8    c #290000",
"9    c #2D0000",
"0    c #310000",
"a    c #350000",
"b    c #390000",
"c    c #3D0000",
"d    c #400000",
"e    c #440000",
"f    c #480000",
"g    c #4C0000",
"h    c #500000",
"i    c #540000",
"j    c #580000",
"k    c #5C0000",
"l    c #600000",
"m    c #640000",
"n    c #680000",
"o    c #6B0000",
"p    c #6F0000",
"q    c #730000",
"r    c #770000",
"s    c #7B0000",
"t    c #7F0000",
"u    c #830000",
"v    c #870000",
"w    c #8B0000",
"x    c #8F0000",
"y    c #930000",
"z    c #970000",
"A    c #9B0000",
"B    c #9F0000",
"C    c #A30000",
"D    c #A70000",
"E    c #AB0000",
"F    c #AF0000",
"G    c #B30000",
"H    c #B70000",
"I    c #BB0000",
"J    c #BF0000",
"K    c #C30000",
"L    c #C70000",
"M    c #CB0000",
"N    c #CF0000",
"O    c #D30000",
"P    c #D70000",
"Q    c #DB0000",
"R    c #DF0000",
"S    c #E30000",
"T    c #E70000",
"U    c #EB0000",
"V    c #EF0000",
"W    c #F30000",
"X    c #F70000",
"Y    c #FB0000",
"+.   c #FF0000",
"..   c #FF0800",
"*.   c #FF1000",
"1.   c #FF1800",
"2.   c #FF2000",
"3.   c #FF2800",
"4.   c #FF3000",
"5.   c #FF3800",
"6.   c #FF4000",
"7.   c #FF4800",
"8.   c #FF5000",
"9.   c #FF5800",
"0.   c #FF6000",
"a.   c #FF6800",
"b.   c #FF7000",
"c.   c #FF7800",
"d.   c #FF8000",
"e.   c #FF8700",
"f.   c #FF8F00",
"g.   c #FF9700",
"h.   c #FF9F00",
"i.   c #FFA700",
"j.   c #FFAF00",
"k.   c #FFB700",
"l.   c #FFBF00",
"m.   c #FFC700",
"n.   c #FFCF00",
"o.   c #FFD700",
"p.   c #FFDF00",
"q.   c #FFE700",
"r.   c #FFEF00",
"s.   c #FFF700",
"t.   c #FFFF00",
"u.   c #FFFF08",
"v.   c #FFFF10",
"w.   c #FFFF18",
"x.   c #FFFF20",
"y.   c #FFFF28",
"z.   c #FFFF30",
"A.   c #FFFF38",
"B.   c #FFFF40",
"C.   c #FFFF48",
"D.   c #FFFF50",
"E.   c #FFFF58",
"F.   c #FFFF60",
"G.   c #FFFF68",
"H.   c #FFFF70",
"I.   c #FFFF78",
"J.   c #FFFF80",
"K.   c #FFFF87",
"L.   c #FFFF8F",
"M.   c #FFFF97",
"N.   c #FFFF9F",
"O.   c #FFFFA7",
"P.   c #FFFFAF",
"Q.   c #FFFFB7",
"R.   c #FFFFBF",
"S.   c #FFFFC7",
"T.   c #FFFFCF",
"U.   c #FFFFD7",
"V.   c #FFFFDF",
"W.   c #FFFFE7",
"X.   c #FFFFEF",
"Y.   c #FFFFF7",
"+*   c #FFFFFF",
". * 1 2 3 4 5 6 7 8 9 0 a b c d e f g h i j k l m n o p q r s t u v w x y z A B C D E F G H I J K L M N O P Q R S T U V W X Y +...*.1.2.3.4.5.6.7.8.9.0.a.b.c.d.e.f.g.h.i.j.k.l.m.n.o.p.q.r.s.t.u.v.w.x.y.z.A.B.C.D.E.F.G.H.I.J.K.L.M.N.O.P.Q.R.S.T.U.V.W.X.Y.+*"
};
