/* XPM */
static const char *Land_xpm[] = {
"128 1 128 2",
".    c #02FD02",
"*    c #04FB04",
"1    c #06F906",
"2    c #08F708",
"3    c #09F609",
"4    c #0BF40B",
"5    c #0DF20D",
"6    c #0FF00F",
"7    c #11EE11",
"8    c #13EC13",
"9    c #15EA15",
"0    c #17E817",
"a    c #18E718",
"b    c #1AE51A",
"c    c #1CE31C",
"d    c #1EE11E",
"e    c #20DF20",
"f    c #22DD22",
"g    c #24DB24",
"h    c #26D926",
"i    c #27D827",
"j    c #29D629",
"k    c #2BD42B",
"l    c #2DD22D",
"m    c #2FD02F",
"n    c #31CE31",
"o    c #33CC33",
"p    c #36C933",
"q    c #39C633",
"r    c #3CC333",
"s    c #40BF33",
"t    c #43BC33",
"u    c #46B933",
"v    c #49B633",
"w    c #4CB333",
"x    c #50AF33",
"y    c #53AC33",
"z    c #56A933",
"A    c #59A633",
"B    c #5DA233",
"C    c #609F33",
"D    c #639C33",
"E    c #669933",
"F    c #6A9533",
"G    c #6D9233",
"H    c #708F33",
"I    c #738C33",
"J    c #778833",
"K    c #7A8533",
"L    c #7D8233",
"M    c #807F33",
"N    c #847B33",
"O    c #877833",
"P    c #8A7533",
"Q    c #8D7233",
"R    c #916F33",
"S    c #946B33",
"T    c #976833",
"U    c #9A6835",
"V    c #9D6C39",
"W    c #9F703D",
"X    c #A27441",
"Y    c #A57845",
"+.   c #A77C49",
"..   c #AA804D",
"*.   c #AD8451",
"1.   c #B08855",
"2.   c #B28C59",
"3.   c #B5905D",
"4.   c #B89461",
"5.   c #BA9865",
"6.   c #BD9C69",
"7.   c #C0A06D",
"8.   c #C2A471",
"9.   c #C5A875",
"0.   c #C8AC79",
"a.   c #CAB07D",
"b.   c #CDB481",
"c.   c #D0B885",
"d.   c #D3BC89",
"e.   c #D5C08D",
"f.   c #D8C491",
"g.   c #DBC895",
"h.   c #DDCC99",
"i.   c #E0D19E",
"j.   c #E3D5A2",
"k.   c #E5D9A6",
"l.   c #E8DDAA",
"m.   c #EBE1AE",
"n.   c #EDE5B2",
"o.   c #F0E9B6",
"p.   c #F3EDBA",
"q.   c #F6F1BE",
"r.   c #F8F5C2",
"s.   c #FBF9C6",
"t.   c #FEFDCA",
"u.   c #FFFFCD",
"v.   c #FFFFD0",
"w.   c #FFFFD3",
"x.   c #FFFFD5",
"y.   c #FFFFD8",
"z.   c #FFFFDB",
"A.   c #FFFFDE",
"B.   c #FFFFE0",
"C.   c #FFFFE3",
"D.   c #FFFFE6",
"E.   c #FFFFE8",
"F.   c #FFFFEB",
"G.   c #FFFFEE",
"H.   c #FFFFF1",
"I.   c #FFFFF3",
"J.   c #FFFFF6",
"K.   c #FFFFF9",
"L.   c #FFFFFB",
"M.   c #FFFFFE",
"N.   c #FCFCFF",
"O.   c #F8F8FF",
"P.   c #F4F4FF",
"Q.   c #F0F0FF",
"R.   c #ECECFF",
"S.   c #E8E8FF",
"T.   c #E4E4FF",
"U.   c #E0E0FF",
"V.   c #DCDCFF",
"W.   c #D8D8FF",
"X.   c #D4D4FF",
"Y.   c #D0D0FF",
"+*   c #CCCCFF",
". * 1 2 3 4 5 6 7 8 9 0 a b c d e f g h i j k l m n o p q r s t u v w x y z A B C D E F G H I J K L M N O P Q R S T U V W X Y +...*.1.2.3.4.5.6.7.8.9.0.a.b.c.d.e.f.g.h.i.j.k.l.m.n.o.p.q.r.s.t.u.v.w.x.y.z.A.B.C.D.E.F.G.H.I.J.K.L.M.N.O.P.Q.R.S.T.U.V.W.X.Y.+*"
};
