/* XPM */
static const char *Magma_xpm[] = {
"128 1 128 2",
".    c #00F9FF",
"*    c #00F3FF",
"1    c #00EDFF",
"2    c #00E7FF",
"3    c #00E1FF",
"4    c #00DBFF",
"5    c #00D5FF",
"6    c #00CFFF",
"7    c #00C9FF",
"8    c #00C3FF",
"9    c #00BDFF",
"0    c #00B7FF",
"a    c #00B1FF",
"b    c #00ABFF",
"c    c #00A5FF",
"d    c #009FFF",
"e    c #0099FF",
"f    c #0096FF",
"g    c #0093FF",
"h    c #0090FF",
"i    c #008DFF",
"j    c #008AFF",
"k    c #0087FF",
"l    c #0084FF",
"m    c #0081FF",
"n    c #0079FF",
"o    c #006AFF",
"p    c #005BFF",
"q    c #004CFF",
"r    c #003EFF",
"s    c #002FFF",
"t    c #0020FF",
"u    c #0011FF",
"v    c #0002FF",
"w    c #0900F9",
"x    c #1300F1",
"y    c #1E00EA",
"z    c #2800E2",
"A    c #3300DB",
"B    c #3D00D3",
"C    c #4800CC",
"D    c #5200C4",
"E    c #5B00BD",
"F    c #6100B7",
"G    c #6700B1",
"H    c #6D00AB",
"I    c #7300A6",
"J    c #7900A0",
"K    c #80009A",
"L    c #860094",
"M    c #8C008E",
"N    c #940086",
"O    c #9D007D",
"P    c #A60073",
"Q    c #AE006A",
"R    c #B70061",
"S    c #C00058",
"T    c #C9004F",
"U    c #D20046",
"V    c #D9003D",
"W    c #DE0036",
"X    c #E2002E",
"Y    c #E70027",
"+.   c #EB0020",
"..   c #F00018",
"*.   c #F50011",
"1.   c #F90009",
"2.   c #FE0002",
"3.   c #FF0A00",
"4.   c #FF1700",
"5.   c #FF2500",
"6.   c #FF3200",
"7.   c #FF3F00",
"8.   c #FF4D00",
"9.   c #FF5A00",
"0.   c #FF6700",
"a.   c #FF7300",
"b.   c #FF7900",
"c.   c #FF7F00",
"d.   c #FF8500",
"e.   c #FF8B00",
"f.   c #FF9100",
"g.   c #FF9700",
"h.   c #FF9D00",
"i.   c #FFA300",
"j.   c #FFA800",
"k.   c #FFAD00",
"l.   c #FFB100",
"m.   c #FFB600",
"n.   c #FFBA00",
"o.   c #FFBF00",
"p.   c #FFC300",
"q.   c #FFC800",
"r.   c #FFCC00",
"s.   c #FFCF00",
"t.   c #FFD200",
"u.   c #FFD500",
"v.   c #FFD800",
"w.   c #FFDB00",
"x.   c #FFDE00",
"y.   c #FFE100",
"z.   c #FFE400",
"A.   c #FFE700",
"B.   c #FFEA00",
"C.   c #FFED00",
"D.   c #FFF000",
"E.   c #FFF300",
"F.   c #FFF600",
"G.   c #FFF900",
"H.   c #FFFC00",
"I.   c #FFFF01",
"J.   c #FFFF16",
"K.   c #FFFF2B",
"L.   c #FFFF40",
"M.   c #FFFF55",
"N.   c #FFFF6A",
"O.   c #FFFF7F",
"P.   c #FFFF93",
"Q.   c #FFFFA8",
"R.   c #FFFFB7",
"S.   c #FFFFC0",
"T.   c #FFFFC9",
"U.   c #FFFFD2",
"V.   c #FFFFDB",
"W.   c #FFFFE4",
"X.   c #FFFFED",
"Y.   c #FFFFF6",
"+*   c #FFFFFF",
". * 1 2 3 4 5 6 7 8 9 0 a b c d e f g h i j k l m n o p q r s t u v w x y z A B C D E F G H I J K L M N O P Q R S T U V W X Y +...*.1.2.3.4.5.6.7.8.9.0.a.b.c.d.e.f.g.h.i.j.k.l.m.n.o.p.q.r.s.t.u.v.w.x.y.z.A.B.C.D.E.F.G.H.I.J.K.L.M.N.O.P.Q.R.S.T.U.V.W.X.Y.+*"
};
