/* XPM */
static const char *Rainbow_xpm[] = {
"128 1 128 2",
".    c #0008FF",
"*    c #0010FF",
"1    c #0018FF",
"2    c #0020FF",
"3    c #0028FF",
"4    c #0030FF",
"5    c #0038FF",
"6    c #0040FF",
"7    c #0048FF",
"8    c #0050FF",
"9    c #0058FF",
"0    c #0060FF",
"a    c #0068FF",
"b    c #0070FF",
"c    c #0078FF",
"d    c #0080FF",
"e    c #0087FF",
"f    c #008FFF",
"g    c #0097FF",
"h    c #009FFF",
"i    c #00A7FF",
"j    c #00AFFF",
"k    c #00B7FF",
"l    c #00BFFF",
"m    c #00C7FF",
"n    c #00CFFF",
"o    c #00D7FF",
"p    c #00DFFF",
"q    c #00E7FF",
"r    c #00EFFF",
"s    c #00F7FF",
"t    c #00FFFF",
"u    c #00FFF7",
"v    c #00FFEF",
"w    c #00FFE7",
"x    c #00FFDF",
"y    c #00FFD7",
"z    c #00FFCF",
"A    c #00FFC7",
"B    c #00FFBF",
"C    c #00FFB7",
"D    c #00FFAF",
"E    c #00FFA7",
"F    c #00FF9F",
"G    c #00FF97",
"H    c #00FF8F",
"I    c #00FF87",
"J    c #00FF80",
"K    c #00FF78",
"L    c #00FF70",
"M    c #00FF68",
"N    c #00FF60",
"O    c #00FF58",
"P    c #00FF50",
"Q    c #00FF48",
"R    c #00FF40",
"S    c #00FF38",
"T    c #00FF30",
"U    c #00FF28",
"V    c #00FF20",
"W    c #00FF18",
"X    c #00FF10",
"Y    c #00FF08",
"+.   c #00FF00",
"..   c #08FF00",
"*.   c #10FF00",
"1.   c #18FF00",
"2.   c #20FF00",
"3.   c #28FF00",
"4.   c #30FF00",
"5.   c #38FF00",
"6.   c #40FF00",
"7.   c #48FF00",
"8.   c #50FF00",
"9.   c #58FF00",
"0.   c #60FF00",
"a.   c #68FF00",
"b.   c #70FF00",
"c.   c #78FF00",
"d.   c #80FF00",
"e.   c #87FF00",
"f.   c #8FFF00",
"g.   c #97FF00",
"h.   c #9FFF00",
"i.   c #A7FF00",
"j.   c #AFFF00",
"k.   c #B7FF00",
"l.   c #BFFF00",
"m.   c #C7FF00",
"n.   c #CFFF00",
"o.   c #D7FF00",
"p.   c #DFFF00",
"q.   c #E7FF00",
"r.   c #EFFF00",
"s.   c #F7FF00",
"t.   c #FFFF00",
"u.   c #FFF700",
"v.   c #FFEF00",
"w.   c #FFE700",
"x.   c #FFDF00",
"y.   c #FFD700",
"z.   c #FFCF00",
"A.   c #FFC700",
"B.   c #FFBF00",
"C.   c #FFB700",
"D.   c #FFAF00",
"E.   c #FFA700",
"F.   c #FF9F00",
"G.   c #FF9700",
"H.   c #FF8F00",
"I.   c #FF8700",
"J.   c #FF8000",
"K.   c #FF7800",
"L.   c #FF7000",
"M.   c #FF6800",
"N.   c #FF6000",
"O.   c #FF5800",
"P.   c #FF5000",
"Q.   c #FF4800",
"R.   c #FF4000",
"S.   c #FF3800",
"T.   c #FF3000",
"U.   c #FF2800",
"V.   c #FF2000",
"W.   c #FF1800",
"X.   c #FF1000",
"Y.   c #FF0800",
"+*   c #FF0000",
". * 1 2 3 4 5 6 7 8 9 0 a b c d e f g h i j k l m n o p q r s t u v w x y z A B C D E F G H I J K L M N O P Q R S T U V W X Y +...*.1.2.3.4.5.6.7.8.9.0.a.b.c.d.e.f.g.h.i.j.k.l.m.n.o.p.q.r.s.t.u.v.w.x.y.z.A.B.C.D.E.F.G.H.I.J.K.L.M.N.O.P.Q.R.S.T.U.V.W.X.Y.+*"
};
