/* XPM */
static const char *RainBowPastel_xpm[] = {
"128 1 123 2",
".    c #E4E4E8",
"*    c #E2E2EA",
"1    c #E0E0EB",
"2    c #DFDFED",
"3    c #DDDDEF",
"4    c #DBDBF1",
"5    c #D9D9F2",
"6    c #D7D7F4",
"7    c #D5D5F6",
"8    c #D4D4F8",
"9    c #D2D2FA",
"0    c #D0D0FB",
"a    c #CECEFD",
"b    c #CCCCFF",
"c    c #CACCFD",
"d    c #C7CCFA",
"e    c #C4CCF7",
"f    c #C2CCF5",
"g    c #BFCCF2",
"h    c #BCCCEF",
"i    c #BACCED",
"j    c #B7CCEA",
"k    c #B4CCE7",
"l    c #B2CCE5",
"m    c #AFCCE2",
"n    c #ACCCDF",
"o    c #AACCDD",
"p    c #A7CCDA",
"q    c #A4CCD7",
"r    c #A2CCD5",
"s    c #9FCCD2",
"t    c #9CCCCF",
"u    c #9ACCCD",
"v    c #9BCECC",
"w    c #9DD0CC",
"x    c #9FD2CC",
"y    c #A2D5CC",
"z    c #A4D7CC",
"A    c #A6D9CC",
"B    c #A9DCCC",
"C    c #ABDECC",
"D    c #AEE1CC",
"E    c #B0E3CC",
"F    c #B2E5CC",
"G    c #B5E8CC",
"H    c #B7EACC",
"I    c #B9ECCC",
"J    c #BCEFCC",
"K    c #BEF1CC",
"L    c #C0F3CC",
"M    c #C3F6CC",
"N    c #C5F8CC",
"O    c #C7FACC",
"P    c #CAFDCC",
"Q    c #CCFFCC",
"R    c #CFFFCC",
"S    c #D1FFCC",
"T    c #D4FFCC",
"U    c #D6FFCC",
"V    c #D9FFCC",
"W    c #DBFFCC",
"X    c #DEFFCC",
"Y    c #E0FFCC",
"+.   c #E2FFCC",
"..   c #E5FFCC",
"*.   c #E7FFCC",
"1.   c #EAFFCC",
"2.   c #ECFFCC",
"3.   c #EFFFCC",
"4.   c #F1FFCC",
"5.   c #F4FFCC",
"6.   c #F6FFCC",
"7.   c #F9FFCC",
"8.   c #FBFFCC",
"9.   c #FEFFCC",
"0.   c #FFFECC",
"a.   c #FFFCCC",
"b.   c #FFFACC",
"c.   c #FFF8CC",
"d.   c #FFF7CC",
"e.   c #FFF5CC",
"f.   c #FFF3CC",
"g.   c #FFF1CC",
"h.   c #FFEFCC",
"i.   c #FFEDCC",
"j.   c #FFEBCC",
"k.   c #FFE9CC",
"l.   c #FFE7CC",
"m.   c #FFE5CC",
"n.   c #FFE4CC",
"o.   c #FFE2CC",
"p.   c #FFE0CC",
"q.   c #FFDECC",
"r.   c #FFDCCC",
"s.   c #FFDACC",
"t.   c #FFD8CC",
"u.   c #FFD6CC",
"v.   c #FFD4CC",
"w.   c #FFD2CC",
"x.   c #FFD1CC",
"y.   c #FFCFCC",
"z.   c #FFCDCC",
"A.   c #FFCDCD",
"B.   c #FFD0D0",
"C.   c #FFD2D2",
"D.   c #FFD5D5",
"E.   c #FFD7D7",
"F.   c #FFDADA",
"G.   c #FFDCDC",
"H.   c #FFDFDF",
"I.   c #FFE1E1",
"J.   c #FFE4E4",
"K.   c #FFE6E6",
"L.   c #FFE9E9",
"M.   c #FFEBEB",
"N.   c #FFEEEE",
"O.   c #FFF0F0",
"P.   c #FFF3F3",
"Q.   c #FFF5F5",
"R.   c #FFF8F8",
"S.   c #FFFAFA",
"T.   c #FFFDFD",
"U.   c #FFFFFF",
". * 1 2 3 4 5 6 7 8 9 0 a b c d e f g h i j k l m n o p q r s t u v w x y z A B C D E F G H I J K L M N O P Q R S T U V W X Y +...*.1.2.3.4.5.6.7.8.9.0.a.b.c.d.e.f.g.h.i.j.k.l.m.n.o.p.q.r.s.t.u.v.w.x.y.z.A.B.C.D.E.F.G.H.I.J.K.L.M.N.O.P.Q.R.S.T.U.U.U.U.U.U."
};
