/* XPM */
static const char *RainBowLight_xpm[] = {
"128 1 128 2",
".    c #CC99CE",
"*    c #CC99D1",
"1    c #CC99D3",
"2    c #CC99D6",
"3    c #CC99D8",
"4    c #CC99DA",
"5    c #CC99DD",
"6    c #CC99DF",
"7    c #CC99E1",
"8    c #CC99E4",
"9    c #CC99E6",
"0    c #CC99E9",
"a    c #CC99EB",
"b    c #CC99ED",
"c    c #CC99F0",
"d    c #CC99F2",
"e    c #CC99F4",
"f    c #CC99F7",
"g    c #CC99F9",
"h    c #CC99FC",
"i    c #CC99FE",
"j    c #C899FF",
"k    c #C199FF",
"l    c #BA99FF",
"m    c #B399FF",
"n    c #AC99FF",
"o    c #A599FF",
"p    c #9E99FF",
"q    c #9799FF",
"r    c #9099FF",
"s    c #8999FF",
"t    c #8299FF",
"u    c #7B99FF",
"v    c #7499FF",
"w    c #6D99FF",
"x    c #6699FF",
"y    c #699FFF",
"z    c #6BA4FF",
"A    c #6EA9FF",
"B    c #71AEFF",
"C    c #73B3FF",
"D    c #76B9FF",
"E    c #78BEFF",
"F    c #7BC3FF",
"G    c #7EC8FF",
"H    c #80CDFF",
"I    c #83D3FF",
"J    c #85D8FF",
"K    c #88DDFF",
"L    c #8BE2FF",
"M    c #8DE8FF",
"N    c #90EDFF",
"O    c #93F2FF",
"P    c #95F7FF",
"Q    c #98FCFF",
"R    c #99FFF7",
"S    c #99FFE7",
"T    c #99FFD6",
"U    c #99FFC6",
"V    c #99FFB6",
"W    c #99FFA6",
"X    c #99FF96",
"Y    c #99FF85",
"+.   c #99FF75",
"..   c #99FF65",
"*.   c #99FF55",
"1.   c #99FF45",
"2.   c #99FF35",
"3.   c #99FF24",
"4.   c #99FF14",
"5.   c #99FF04",
"6.   c #9CFF06",
"7.   c #9FFF0D",
"8.   c #A3FF14",
"9.   c #A7FF1C",
"0.   c #AAFF23",
"a.   c #AEFF2A",
"b.   c #B2FF32",
"c.   c #B5FF39",
"d.   c #B9FF40",
"e.   c #BDFF48",
"f.   c #C1FF4F",
"g.   c #C4FF56",
"h.   c #C8FF5E",
"i.   c #CCFF65",
"j.   c #CFFF69",
"k.   c #D2FF6C",
"l.   c #D5FF6F",
"m.   c #D9FF73",
"n.   c #DCFF76",
"o.   c #DFFF79",
"p.   c #E2FF7C",
"q.   c #E5FF7F",
"r.   c #E9FF83",
"s.   c #ECFF86",
"t.   c #EFFF89",
"u.   c #F2FF8C",
"v.   c #F6FF90",
"w.   c #F9FF93",
"x.   c #FCFF96",
"y.   c #FFFF98",
"z.   c #FFFC8F",
"A.   c #FFF986",
"B.   c #FFF67D",
"C.   c #FFF374",
"D.   c #FFF06B",
"E.   c #FFED62",
"F.   c #FFEA59",
"G.   c #FFE750",
"H.   c #FFE447",
"I.   c #FFE13E",
"J.   c #FFDE35",
"K.   c #FFDB2C",
"L.   c #FFD823",
"M.   c #FFD51A",
"N.   c #FFD211",
"O.   c #FFCF08",
"P.   c #FFCC01",
"Q.   c #FFC60B",
"R.   c #FFC115",
"S.   c #FFBC1F",
"T.   c #FFB729",
"U.   c #FFB233",
"V.   c #FFAD3E",
"W.   c #FFA848",
"X.   c #FFA352",
"Y.   c #FF9E5C",
"+*   c #FF9966",
". * 1 2 3 4 5 6 7 8 9 0 a b c d e f g h i j k l m n o p q r s t u v w x y z A B C D E F G H I J K L M N O P Q R S T U V W X Y +...*.1.2.3.4.5.6.7.8.9.0.a.b.c.d.e.f.g.h.i.j.k.l.m.n.o.p.q.r.s.t.u.v.w.x.y.z.A.B.C.D.E.F.G.H.I.J.K.L.M.N.O.P.Q.R.S.T.U.V.W.X.Y.+*"
};
