/* XPM */
static const char *RainBow_DarkEnds_xpm[] = {
"128 1 128 2",
".    c #000087",
"*    c #00008C",
"1    c #000091",
"2    c #000096",
"3    c #00009A",
"4    c #00009F",
"5    c #0000A4",
"6    c #0000A9",
"7    c #0000AE",
"8    c #0000B3",
"9    c #0000B8",
"0    c #0000BD",
"a    c #0000C1",
"b    c #0000C6",
"c    c #0000CB",
"d    c #0000D0",
"e    c #0000D5",
"f    c #0000DA",
"g    c #0000DF",
"h    c #0000E4",
"i    c #0000E9",
"j    c #0000ED",
"k    c #0000F2",
"l    c #0000F7",
"m    c #0000FC",
"n    c #0004FF",
"o    c #000EFF",
"p    c #0018FF",
"q    c #0022FF",
"r    c #002CFF",
"s    c #0036FF",
"t    c #0040FF",
"u    c #004AFF",
"v    c #0054FF",
"w    c #005EFF",
"x    c #0068FF",
"y    c #0072FF",
"z    c #007CFF",
"A    c #0085FF",
"B    c #008FFF",
"C    c #0099FF",
"D    c #00A3FF",
"E    c #00ADFF",
"F    c #00B7FF",
"G    c #00C1FF",
"H    c #00CBFF",
"I    c #00D5FF",
"J    c #00DFFF",
"K    c #00E9FF",
"L    c #00F3FF",
"M    c #00FDFF",
"N    c #08FFF7",
"O    c #12FFED",
"P    c #1CFFE3",
"Q    c #26FFD9",
"R    c #30FFCF",
"S    c #3AFFC5",
"T    c #44FFBB",
"U    c #4EFFB1",
"V    c #58FFA7",
"W    c #62FF9D",
"X    c #6CFF93",
"Y    c #76FF89",
"+.   c #7FFF80",
"..   c #89FF76",
"*.   c #93FF6C",
"1.   c #9DFF62",
"2.   c #A7FF58",
"3.   c #B1FF4E",
"4.   c #BBFF44",
"5.   c #C5FF3A",
"6.   c #CFFF30",
"7.   c #D9FF26",
"8.   c #E3FF1C",
"9.   c #EDFF12",
"0.   c #F7FF08",
"a.   c #FFFD00",
"b.   c #FFF300",
"c.   c #FFE900",
"d.   c #FFDF00",
"e.   c #FFD500",
"f.   c #FFCB00",
"g.   c #FFC100",
"h.   c #FFB700",
"i.   c #FFAD00",
"j.   c #FFA300",
"k.   c #FF9900",
"l.   c #FF8F00",
"m.   c #FF8500",
"n.   c #FF7C00",
"o.   c #FF7200",
"p.   c #FF6800",
"q.   c #FF5E00",
"r.   c #FF5400",
"s.   c #FF4A00",
"t.   c #FF4000",
"u.   c #FF3600",
"v.   c #FF2C00",
"w.   c #FF2200",
"x.   c #FF1800",
"y.   c #FF0E00",
"z.   c #FF0400",
"A.   c #FC0000",
"B.   c #F70000",
"C.   c #F20000",
"D.   c #ED0000",
"E.   c #E90000",
"F.   c #E40000",
"G.   c #DF0000",
"H.   c #DA0000",
"I.   c #D50000",
"J.   c #D00000",
"K.   c #CB0000",
"L.   c #C60000",
"M.   c #C10000",
"N.   c #BD0000",
"O.   c #B80000",
"P.   c #B30000",
"Q.   c #AE0000",
"R.   c #A90000",
"S.   c #A40000",
"T.   c #9F0000",
"U.   c #9A0000",
"V.   c #960000",
"W.   c #910000",
"X.   c #8C0000",
"Y.   c #870000",
"+*   c #820000",
". * 1 2 3 4 5 6 7 8 9 0 a b c d e f g h i j k l m n o p q r s t u v w x y z A B C D E F G H I J K L M N O P Q R S T U V W X Y +...*.1.2.3.4.5.6.7.8.9.0.a.b.c.d.e.f.g.h.i.j.k.l.m.n.o.p.q.r.s.t.u.v.w.x.y.z.A.B.C.D.E.F.G.H.I.J.K.L.M.N.O.P.Q.R.S.T.U.V.W.X.Y.+*"
};
