/* XPM */
static const char *Red_xpm[] = {
"128 1 128 2",
".    c #FEE3D6",
"*    c #FEE1D4",
"1    c #FEDFD1",
"2    c #FEDDCF",
"3    c #FEDBCC",
"4    c #FDD9C9",
"5    c #FDD7C7",
"6    c #FDD5C4",
"7    c #FDD3C1",
"8    c #FDD1BF",
"9    c #FDCFBC",
"0    c #FDCDBA",
"a    c #FDCBB7",
"b    c #FDC9B4",
"c    c #FDC7B2",
"d    c #FDC6AF",
"e    c #FCC4AC",
"f    c #FCC2AA",
"g    c #FCC0A7",
"h    c #FCBEA5",
"i    c #FCBCA2",
"j    c #FCBAA0",
"k    c #FCB89D",
"l    c #FCB69B",
"m    c #FCB499",
"n    c #FCB297",
"o    c #FCB095",
"p    c #FCAE92",
"q    c #FCAC90",
"r    c #FCAA8E",
"s    c #FCA88C",
"t    c #FCA78A",
"u    c #FCA587",
"v    c #FCA385",
"w    c #FCA183",
"x    c #FC9F81",
"y    c #FC9D7E",
"z    c #FC9B7C",
"A    c #FC997A",
"B    c #FC9778",
"C    c #FC9576",
"D    c #FC9373",
"E    c #FC9171",
"F    c #FC906F",
"G    c #FC8E6E",
"H    c #FC8C6C",
"I    c #FC8A6A",
"J    c #FC8868",
"K    c #FC8666",
"L    c #FC8464",
"M    c #FC8262",
"N    c #FC8161",
"O    c #FC7F5F",
"P    c #FB7D5D",
"Q    c #FB7B5B",
"R    c #FB7959",
"S    c #FB7757",
"T    c #FB7555",
"U    c #FB7353",
"V    c #FB7252",
"W    c #FB7050",
"X    c #FB6E4E",
"Y    c #FB6C4C",
"+.   c #FB6A4A",
"..   c #FA6849",
"*.   c #FA6647",
"1.   c #F96346",
"2.   c #F96144",
"3.   c #F85F43",
"4.   c #F85D42",
"5.   c #F75B40",
"6.   c #F7583F",
"7.   c #F6563D",
"8.   c #F5543C",
"9.   c #F5523B",
"0.   c #F45039",
"a.   c #F44D38",
"b.   c #F34B36",
"c.   c #F34935",
"d.   c #F24733",
"e.   c #F14532",
"f.   c #F14231",
"g.   c #F0402F",
"h.   c #F03E2E",
"i.   c #EF3C2C",
"j.   c #EE3A2C",
"k.   c #EC382B",
"l.   c #EB372A",
"m.   c #E93529",
"n.   c #E73329",
"o.   c #E53228",
"p.   c #E43027",
"q.   c #E22E27",
"r.   c #E02D26",
"s.   c #DF2B25",
"t.   c #DD2924",
"u.   c #DB2824",
"v.   c #DA2623",
"w.   c #D82522",
"x.   c #D62322",
"y.   c #D52121",
"z.   c #D32020",
"A.   c #D11E20",
"B.   c #CF1C1F",
"C.   c #CE1B1E",
"D.   c #CC191D",
"E.   c #CA181D",
"F.   c #C8161C",
"G.   c #C6151B",
"H.   c #C3141B",
"I.   c #C1131A",
"J.   c #BE1219",
"K.   c #BC1118",
"L.   c #BA1018",
"M.   c #B70F17",
"N.   c #B50D16",
"O.   c #B30C15",
"P.   c #B00B15",
"Q.   c #AE0A14",
"R.   c #AC0913",
"S.   c #A90812",
"T.   c #A70712",
"U.   c #A50611",
"V.   c #A20410",
"W.   c #A0030F",
"X.   c #9E020F",
"Y.   c #9B010E",
"+*   c #99000D",
". * 1 2 3 4 5 6 7 8 9 0 a b c d e f g h i j k l m n o p q r s t u v w x y z A B C D E F G H I J K L M N O P Q R S T U V W X Y +...*.1.2.3.4.5.6.7.8.9.0.a.b.c.d.e.f.g.h.i.j.k.l.m.n.o.p.q.r.s.t.u.v.w.x.y.z.A.B.C.D.E.F.G.H.I.J.K.L.M.N.O.P.Q.R.S.T.U.V.W.X.Y.+*"
};
