/* XPM */
static const char *Soil_xpm[] = {
"128 1 128 2",
".    c #00000A",
"*    c #000014",
"1    c #00001E",
"2    c #000028",
"3    c #000032",
"4    c #00003C",
"5    c #000046",
"6    c #000050",
"7    c #00005A",
"8    c #000064",
"9    c #00006E",
"0    c #000078",
"a    c #000081",
"b    c #00008B",
"c    c #000095",
"d    c #00009F",
"e    c #0000A9",
"f    c #0000B3",
"g    c #0000BD",
"h    c #0000C7",
"i    c #0000D1",
"j    c #0000DB",
"k    c #0000E5",
"l    c #0000EF",
"m    c #0000F9",
"n    c #0400FB",
"o    c #0E00F1",
"p    c #1800E7",
"q    c #2200DD",
"r    c #2C00D3",
"s    c #3600C9",
"t    c #4000BF",
"u    c #4A00B5",
"v    c #5400AB",
"w    c #5E00A1",
"x    c #680097",
"y    c #72008D",
"z    c #7C0083",
"A    c #85007A",
"B    c #8F0070",
"C    c #990066",
"D    c #A3005C",
"E    c #AD0052",
"F    c #B70048",
"G    c #C1003E",
"H    c #CB0034",
"I    c #D5002A",
"J    c #DF0020",
"K    c #E90016",
"L    c #F3000C",
"M    c #FD0002",
"N    c #F70800",
"O    c #ED1200",
"P    c #E31C00",
"Q    c #D92600",
"R    c #CF3000",
"S    c #C53A00",
"T    c #BB4400",
"U    c #B14E00",
"V    c #A75800",
"W    c #9D6200",
"X    c #936C00",
"Y    c #897600",
"+.   c #807F00",
"..   c #768900",
"*.   c #6C9300",
"1.   c #629D00",
"2.   c #58A700",
"3.   c #4EB100",
"4.   c #44BB00",
"5.   c #3AC500",
"6.   c #30CF00",
"7.   c #26D900",
"8.   c #1CE300",
"9.   c #12ED00",
"0.   c #08F700",
"a.   c #02FF00",
"b.   c #0CFF00",
"c.   c #16FF00",
"d.   c #20FF00",
"e.   c #2AFF00",
"f.   c #34FF00",
"g.   c #3EFF00",
"h.   c #48FF00",
"i.   c #52FF00",
"j.   c #5CFF00",
"k.   c #66FF00",
"l.   c #70FF00",
"m.   c #7AFF00",
"n.   c #83FF00",
"o.   c #8DFF00",
"p.   c #97FF00",
"q.   c #A1FF00",
"r.   c #ABFF00",
"s.   c #B5FF00",
"t.   c #BFFF00",
"u.   c #C9FF00",
"v.   c #D3FF00",
"w.   c #DDFF00",
"x.   c #E7FF00",
"y.   c #F1FF00",
"z.   c #FBFF00",
"A.   c #FFFF06",
"B.   c #FFFF10",
"C.   c #FFFF1A",
"D.   c #FFFF24",
"E.   c #FFFF2E",
"F.   c #FFFF38",
"G.   c #FFFF42",
"H.   c #FFFF4C",
"I.   c #FFFF56",
"J.   c #FFFF60",
"K.   c #FFFF6A",
"L.   c #FFFF74",
"M.   c #FFFF7E",
"N.   c #FFFF87",
"O.   c #FFFF91",
"P.   c #FFFF9B",
"Q.   c #FFFFA5",
"R.   c #FFFFAF",
"S.   c #FFFFB9",
"T.   c #FFFFC3",
"U.   c #FFFFCD",
"V.   c #FFFFD7",
"W.   c #FFFFE1",
"X.   c #FFFFEB",
"Y.   c #FFFFF5",
"+*   c #FFFFFF",
". * 1 2 3 4 5 6 7 8 9 0 a b c d e f g h i j k l m n o p q r s t u v w x y z A B C D E F G H I J K L M N O P Q R S T U V W X Y +...*.1.2.3.4.5.6.7.8.9.0.a.b.c.d.e.f.g.h.i.j.k.l.m.n.o.p.q.r.s.t.u.v.w.x.y.z.A.B.C.D.E.F.G.H.I.J.K.L.M.N.O.P.Q.R.S.T.U.V.W.X.Y.+*"
};
