/* XPM */
static const char *Terrain_xpm[] = {
"128 1 128 2",
".    c #C3D78C",
"*    c #BFD893",
"1    c #BAD89A",
"2    c #B6D8A0",
"3    c #B1D9A7",
"4    c #ADD9AE",
"5    c #A7D7AC",
"6    c #9FD4A3",
"7    c #98D09A",
"8    c #91CD91",
"9    c #89CA88",
"0    c #82C77F",
"a    c #7CC478",
"b    c #7BC378",
"c    c #7AC378",
"d    c #79C378",
"e    c #77C278",
"f    c #76C278",
"g    c #75C178",
"h    c #7CC27E",
"i    c #85C485",
"j    c #8EC68C",
"k    c #97C893",
"l    c #A1C99B",
"m    c #AACBA2",
"n    c #B2CCA1",
"o    c #B9CD93",
"p    c #C0CE85",
"q    c #C6CE77",
"r    c #CDCF6A",
"s    c #D4CF5C",
"t    c #DBD04E",
"u    c #DED044",
"v    c #E2D03A",
"w    c #E5D030",
"x    c #E9CF26",
"y    c #ECCF1C",
"z    c #F0CF12",
"A    c #F1CB0D",
"B    c #F1C50B",
"C    c #F1BF08",
"D    c #F2B906",
"E    c #F2B204",
"F    c #F2AC02",
"G    c #F0A700",
"H    c #E9A602",
"I    c #E1A404",
"J    c #D9A307",
"K    c #D1A209",
"L    c #C9A10B",
"M    c #C29F0D",
"N    c #C2A319",
"O    c #C5A829",
"P    c #C8AD38",
"Q    c #CBB348",
"R    c #CEB857",
"S    c #D1BD67",
"T    c #D5C273",
"U    c #D9C67B",
"V    c #DECA82",
"W    c #E2CE8A",
"X    c #E7D392",
"Y    c #EBD799",
"+.   c #F0DBA1",
"..   c #F2DEA6",
"*.   c #F4E0AB",
"1.   c #F6E3B0",
"2.   c #F8E6B4",
"3.   c #F9E8B9",
"4.   c #FBEBBE",
"5.   c #FCEDC4",
"6.   c #FBF0CB",
"7.   c #FAF2D1",
"8.   c #FAF4D8",
"9.   c #F9F6DE",
"0.   c #F9F8E5",
"a.   c #F7FAEB",
"b.   c #F4FBED",
"c.   c #F1FBF0",
"d.   c #EFFCF2",
"e.   c #ECFDF5",
"f.   c #E9FDF7",
"g.   c #E6FEFA",
"h.   c #E4FEFA",
"i.   c #E2FEFB",
"j.   c #E1FEFB",
"k.   c #DFFFFC",
"l.   c #DEFFFC",
"m.   c #DCFFFD",
"n.   c #DBFFFD",
"o.   c #DAFEFD",
"p.   c #D9FEFD",
"q.   c #D8FDFC",
"r.   c #D8FCFC",
"s.   c #D7FCFC",
"t.   c #D6FBFC",
"u.   c #D1FAFB",
"v.   c #CCF9FA",
"w.   c #C7F8FA",
"x.   c #C3F7F9",
"y.   c #BEF6F8",
"z.   c #B9F4F7",
"A.   c #B1F2F6",
"B.   c #A6EFF6",
"C.   c #9BECF5",
"D.   c #91E9F4",
"E.   c #86E6F3",
"F.   c #7CE3F2",
"G.   c #70DFF1",
"H.   c #63D9F1",
"I.   c #55D4F0",
"J.   c #48CEF0",
"K.   c #3BC8F0",
"L.   c #2DC3EF",
"M.   c #20BDEF",
"N.   c #19B6F0",
"O.   c #15AEF1",
"P.   c #10A6F2",
"Q.   c #0C9EF3",
"R.   c #0796F4",
"S.   c #038EF4",
"T.   c #0085F5",
"U.   c #007DF6",
"V.   c #0074F7",
"W.   c #006BF8",
"X.   c #0062F8",
"Y.   c #0059F9",
"+*   c #0050FA",
". * 1 2 3 4 5 6 7 8 9 0 a b c d e f g h i j k l m n o p q r s t u v w x y z A B C D E F G H I J K L M N O P Q R S T U V W X Y +...*.1.2.3.4.5.6.7.8.9.0.a.b.c.d.e.f.g.h.i.j.k.l.m.n.o.p.q.r.s.t.u.v.w.x.y.z.A.B.C.D.E.F.G.H.I.J.K.L.M.N.O.P.Q.R.S.T.U.V.W.X.Y.+*"
};
