/* XPM */
static const char *YellowHigh_xpm[] = {
"128 1 128 2",
".    c #81A8D2",
"*    c #7CA3CF",
"1    c #789DCB",
"2    c #7498C8",
"3    c #7092C4",
"4    c #6B8DC1",
"5    c #6787BD",
"6    c #6382B9",
"7    c #5F7CB6",
"8    c #5A76B2",
"9    c #5671AF",
"0    c #526BAB",
"a    c #4E66A7",
"b    c #4960A4",
"c    c #455BA0",
"d    c #41559D",
"e    c #3D5099",
"f    c #384A96",
"g    c #344492",
"h    c #303F8E",
"i    c #2C398B",
"j    c #273487",
"k    c #232E84",
"l    c #202981",
"m    c #1E277F",
"n    c #1C257E",
"o    c #1A227C",
"p    c #18207A",
"q    c #161D79",
"r    c #141B77",
"s    c #131876",
"t    c #111674",
"u    c #0F1473",
"v    c #0D1171",
"w    c #0B0F6F",
"x    c #090C6E",
"y    c #080A6C",
"z    c #06086B",
"A    c #040569",
"B    c #020368",
"C    c #000066",
"D    c #100C62",
"E    c #221A5D",
"F    c #352759",
"G    c #473554",
"H    c #594350",
"I    c #6B504B",
"J    c #7D5E47",
"K    c #8F6C42",
"L    c #A1793E",
"M    c #B48739",
"N    c #C69435",
"O    c #C99130",
"P    c #C5842C",
"Q    c #C17728",
"R    c #BC6A23",
"S    c #B85D1F",
"T    c #B4501B",
"U    c #AF4316",
"V    c #AB3612",
"W    c #A7290E",
"X    c #A31D0A",
"Y    c #9E1005",
"+.   c #9A0301",
"..   c #9A0100",
"*.   c #9C0300",
"1.   c #9D0400",
"2.   c #9F0600",
"3.   c #A00700",
"4.   c #A20900",
"5.   c #A30A00",
"6.   c #A50C00",
"7.   c #A60D00",
"8.   c #A80F00",
"9.   c #A91000",
"0.   c #AB1200",
"a.   c #AC1300",
"b.   c #AE1500",
"c.   c #AF1600",
"d.   c #B11800",
"e.   c #B21900",
"f.   c #B41B00",
"g.   c #B51C00",
"h.   c #B71E00",
"i.   c #BB2200",
"j.   c #BE2500",
"k.   c #C22900",
"l.   c #C52C00",
"m.   c #C93000",
"n.   c #CC3300",
"o.   c #D03700",
"p.   c #D33A00",
"q.   c #D73E00",
"r.   c #DA4100",
"s.   c #DE4500",
"t.   c #E14800",
"u.   c #E44B00",
"v.   c #E84F00",
"w.   c #EB5200",
"x.   c #EF5600",
"y.   c #F25900",
"z.   c #F65D00",
"A.   c #F96000",
"B.   c #FD6400",
"C.   c #FF6800",
"D.   c #FF6F00",
"E.   c #FF7500",
"F.   c #FF7C00",
"G.   c #FF8200",
"H.   c #FF8900",
"I.   c #FF8F00",
"J.   c #FF9600",
"K.   c #FF9D00",
"L.   c #FFA300",
"M.   c #FFAA00",
"N.   c #FFB000",
"O.   c #FFB700",
"P.   c #FFBD00",
"Q.   c #FFC400",
"R.   c #FFCA00",
"S.   c #FFD100",
"T.   c #FFD800",
"U.   c #FFDE00",
"V.   c #FFE500",
"W.   c #FFEB00",
"X.   c #FFF200",
"Y.   c #FFF800",
"+*   c #FFFF00",
". * 1 2 3 4 5 6 7 8 9 0 a b c d e f g h i j k l m n o p q r s t u v w x y z A B C D E F G H I J K L M N O P Q R S T U V W X Y +...*.1.2.3.4.5.6.7.8.9.0.a.b.c.d.e.f.g.h.i.j.k.l.m.n.o.p.q.r.s.t.u.v.w.x.y.z.A.B.C.D.E.F.G.H.I.J.K.L.M.N.O.P.Q.R.S.T.U.V.W.X.Y.+*"
};
